SVG_Azure_All/Quickstart Center.svg

<?xml version="1.0" encoding="UTF-8" standalone="no"?>
<!-- Generated by Microsoft Visio, SVG Export Quickstart Center.svg Page-1 -->

<svg
   xmlns:dc="http://purl.org/dc/elements/1.1/"
   xmlns:cc="http://creativecommons.org/ns#"
   xmlns:rdf="http://www.w3.org/1999/02/22-rdf-syntax-ns#"
   xmlns:svg="http://www.w3.org/2000/svg"
   xmlns="http://www.w3.org/2000/svg"
   xmlns:sodipodi="http://sodipodi.sourceforge.net/DTD/sodipodi-0.dtd"
   xmlns:inkscape="http://www.inkscape.org/namespaces/inkscape"
   width="0.78741747in"
   height="0.78742719in"
   viewBox="0 0 56.694056 56.694898"
   xml:space="preserve"
   class="st9"
   version="1.1"
   id="svg84"
   sodipodi:docname="Quickstart Center.svg"
   style="font-size:12px;overflow:visible;color-interpolation-filters:sRGB;fill:none;fill-rule:evenodd;stroke-linecap:square;stroke-miterlimit:3"
   inkscape:version="0.92.5 (2060ec1f9f, 2020-04-08)"><metadata
   id="metadata90"><rdf:RDF><cc:Work
       rdf:about=""><dc:format>image/svg+xml</dc:format><dc:type
         rdf:resource="http://purl.org/dc/dcmitype/StillImage" /></cc:Work></rdf:RDF></metadata><defs
   id="defs88" /><sodipodi:namedview
   pagecolor="#ffffff"
   bordercolor="#666666"
   borderopacity="1"
   objecttolerance="10"
   gridtolerance="10"
   guidetolerance="10"
   inkscape:pageopacity="0"
   inkscape:pageshadow="2"
   inkscape:window-width="640"
   inkscape:window-height="480"
   id="namedview86"
   showgrid="false"
   inkscape:zoom="1.8365233"
   inkscape:cx="37.795184"
   inkscape:cy="18.900351"
   inkscape:window-x="0"
   inkscape:window-y="0"
   inkscape:window-maximized="0"
   inkscape:current-layer="svg84" />
	<style
   type="text/css"
   id="style2">
	<![CDATA[
		.st1 {fill:#ff8c00;stroke:none;stroke-linecap:butt;stroke-width:3.825}
		.st2 {fill:#dd5900;stroke:none;stroke-linecap:butt;stroke-width:3.825}
		.st3 {fill:#fcd116;stroke:none;stroke-linecap:butt;stroke-width:3.825}
		.st4 {fill:#ff8c00;fill-opacity:0.2;stroke:none;stroke-linecap:butt;stroke-width:3.825}
		.st5 {fill:#0072c6;stroke:none;stroke-linecap:butt;stroke-width:3.825}
		.st6 {fill:#ffffff;fill-opacity:0.6;stroke:none;stroke-linecap:butt;stroke-width:3.825}
		.st7 {fill:#ffffff;stroke:none;stroke-linecap:butt;stroke-width:3.825}
		.st8 {fill:#ff8c00;fill-opacity:0.4;stroke:none;stroke-linecap:butt;stroke-width:3.825}
		.st9 {fill:none;fill-rule:evenodd;font-size:12px;overflow:visible;stroke-linecap:square;stroke-miterlimit:3}
	]]>
	</style>

	<g
   id="g82"
   transform="translate(-5.6693772,-5.6694)">
		<title
   id="title4">Page-1</title>
		<g
   id="group2092-1"
   transform="translate(5.66929,-34.0157)">
			<title
   id="title6">Quickstart Center</title>
			<g
   id="group2093-2">
				<title
   id="title8">Sheet.2093</title>
				<g
   id="shape2094-3"
   transform="translate(1.23965,-23.5704)">
					<title
   id="title10">Sheet.2094</title>
					<path
   d="m 11.08,96.38 c 0,0 -6.41,-4.83 -11.08,-3.41 1.29,-4.65 7.74,-9.91 13.55,-10.94 6.83,0.78 8.02,1.98 8.02,1.98 z"
   class="st1"
   id="path12"
   inkscape:connector-curvature="0"
   style="fill:#ff8c00;stroke:none;stroke-width:3.82500005;stroke-linecap:butt" />
				</g>
				<g
   id="shape2095-5"
   transform="translate(23.9978,-0.812173)">
					<title
   id="title15">Sheet.2095</title>
					<path
   d="M 0,85.3 12.37,74.81 c 0,0 1.19,1.19 1.98,8.02 C 13.31,88.64 8.05,95.08 3.41,96.38 4.82,91.7 0,85.3 0,85.3 Z"
   class="st2"
   id="path17"
   inkscape:connector-curvature="0"
   style="fill:#dd5900;stroke:none;stroke-width:3.82500005;stroke-linecap:butt" />
				</g>
				<g
   id="shape2096-7"
   transform="translate(12.001,-12.0014)">
					<title
   id="title20">Sheet.2096</title>
					<path
   d="m 44.69,51.69 c 0,0 -27.36,5.81 -44.69,32.71 L 11.97,96.38 C 38.88,79.05 44.69,51.69 44.69,51.69 Z"
   class="st3"
   id="path22"
   inkscape:connector-curvature="0"
   style="fill:#fcd116;stroke:none;stroke-width:3.82500005;stroke-linecap:butt" />
				</g>
				<g
   id="shape2097-9"
   transform="translate(12.001,-12.0014)">
					<title
   id="title25">Sheet.2097</title>
					<path
   d="m 44.69,51.69 c 0,0 -27.36,5.81 -44.69,32.71 L 11.97,96.38 C 38.88,79.05 44.69,51.69 44.69,51.69 Z"
   class="st4"
   id="path27"
   inkscape:connector-curvature="0"
   style="fill:#ff8c00;fill-opacity:0.2;stroke:none;stroke-width:3.82500005;stroke-linecap:butt" />
				</g>
				<g
   id="shape2098-11"
   transform="translate(17.9885,-12.0014)">
					<title
   id="title30">Sheet.2098</title>
					<path
   d="M 38.7,51.69 0,90.39 5.99,96.38 C 32.89,79.05 38.7,51.69 38.7,51.69 Z"
   class="st2"
   id="path32"
   inkscape:connector-curvature="0"
   style="fill:#dd5900;stroke:none;stroke-width:3.82500005;stroke-linecap:butt" />
				</g>
				<g
   id="shape2099-13"
   transform="translate(13.507,-13.5074)">
					<title
   id="title35">Sheet.2099</title>
					<path
   d="M 0,87.41 C 13.49,67.33 32.33,59.17 39.42,56.96 37.21,64.04 29.04,82.89 8.96,96.38 Z"
   class="st1"
   id="path37"
   inkscape:connector-curvature="0"
   style="fill:#ff8c00;stroke:none;stroke-width:3.82500005;stroke-linecap:butt" />
				</g>
				<g
   id="shape2100-15"
   transform="translate(40.8442,-40.8449)">
					<title
   id="title40">Sheet.2100</title>
					<path
   d="m 15.85,80.53 c 0,0 -6.84,1.45 -15.85,6.27 l 9.58,9.58 c 4.82,-9.01 6.27,-15.85 6.27,-15.85 z"
   class="st5"
   id="path42"
   inkscape:connector-curvature="0"
   style="fill:#0072c6;stroke:none;stroke-width:3.82500005;stroke-linecap:butt" />
				</g>
				<g
   id="shape2101-17">
					<title
   id="title45">Sheet.2101</title>
					<path
   d="M 0,96.38 C 0,96.38 0.01,82 12,72.4 L 23.98,84.38 C 14.38,96.37 0,96.38 0,96.38 Z"
   class="st1"
   id="path47"
   inkscape:connector-curvature="0"
   style="fill:#ff8c00;stroke:none;stroke-width:3.82500005;stroke-linecap:butt" />
				</g>
				<g
   id="shape2102-19"
   transform="translate(4.05662,-4.052)">
					<title
   id="title50">Sheet.2102</title>
					<path
   d="M 0,96.38 C 0.34,92.98 2.51,84.81 9.62,78.13 l 8.63,8.63 C 11.55,93.9 3.39,96.04 0,96.38 Z"
   class="st3"
   id="path52"
   inkscape:connector-curvature="0"
   style="fill:#fcd116;stroke:none;stroke-width:3.82500005;stroke-linecap:butt" />
				</g>
				<g
   id="shape2103-21"
   transform="translate(8.29943,-8.29365)">
					<title
   id="title55">Sheet.2103</title>
					<path
   d="M 0,96.38 C 0.71,93.05 2.63,88.03 6.59,83.59 l 6.2,6.19 C 7.79,94.27 2.44,95.86 0,96.38 Z"
   class="st6"
   id="path57"
   inkscape:connector-curvature="0"
   style="fill:#ffffff;fill-opacity:0.6;stroke:none;stroke-width:3.82500005;stroke-linecap:butt" />
				</g>
				<g
   id="shape2104-23"
   transform="translate(29.8095,-29.8103)">
					<title
   id="title60">Sheet.2104</title>
					<circle
   cx="6.1674299"
   cy="90.210503"
   class="st7"
   id="ellipse62"
   r="6.1674299"
   style="fill:#ffffff;stroke:none;stroke-width:3.82500005;stroke-linecap:butt" />
				</g>
				<g
   id="shape2105-25"
   transform="translate(31.3579,-31.3614)">
					<title
   id="title65">Sheet.2105</title>
					<circle
   cx="4.6178598"
   cy="91.760101"
   class="st3"
   id="ellipse67"
   r="4.6178598"
   style="fill:#fcd116;stroke:none;stroke-width:3.82500005;stroke-linecap:butt" />
				</g>
				<g
   id="shape2106-27"
   transform="translate(31.7912,-30.7161)">
					<title
   id="title70">Sheet.2106</title>
					<path
   d="M 8.37,89.16 C 9.45,91.47 8.45,94.22 6.14,95.3 3.83,96.38 1.08,95.38 0,93.07 Z"
   class="st8"
   id="path72"
   inkscape:connector-curvature="0"
   style="fill:#ff8c00;fill-opacity:0.4;stroke:none;stroke-width:3.82500005;stroke-linecap:butt" />
				</g>
				<g
   id="shape2107-29"
   transform="translate(11.5393,-11.5146)">
					<title
   id="title75">Sheet.2107</title>
					<path
   d="M 4.28,94.49 C 2.89,95.88 0,96.38 0,96.38 c 0,0 0.61,-3.05 1.86,-4.31 l 11.6,-11.59 2.41,2.42 z"
   class="st2"
   id="path77"
   inkscape:connector-curvature="0"
   style="fill:#dd5900;stroke:none;stroke-width:3.82500005;stroke-linecap:butt" />
				</g>
			</g>
		</g>
	</g>
</svg>

<?xml version="1.0" encoding="UTF-8" standalone="no"?>
<!DOCTYPE svg PUBLIC "-//W3C//DTD SVG 1.1//EN" "http://www.w3.org/Graphics/SVG/1.1/DTD/svg11.dtd">
<!-- Generated by Microsoft Visio, SVG Export Quickstart Center.svg Page-1 -->
<svg xmlns="http://www.w3.org/2000/svg" xmlns:xlink="http://www.w3.org/1999/xlink" xmlns:ev="http://www.w3.org/2001/xml-events"
		width="0.944882in" height="1.33858in" viewBox="0 0 68.0315 96.378" xml:space="preserve" color-interpolation-filters="sRGB"
		class="st9">
	<style type="text/css">
	<![CDATA[
		.st1 {fill:#ff8c00;stroke:none;stroke-linecap:butt;stroke-width:3.825}
		.st2 {fill:#dd5900;stroke:none;stroke-linecap:butt;stroke-width:3.825}
		.st3 {fill:#fcd116;stroke:none;stroke-linecap:butt;stroke-width:3.825}
		.st4 {fill:#ff8c00;fill-opacity:0.2;stroke:none;stroke-linecap:butt;stroke-width:3.825}
		.st5 {fill:#0072c6;stroke:none;stroke-linecap:butt;stroke-width:3.825}
		.st6 {fill:#ffffff;fill-opacity:0.6;stroke:none;stroke-linecap:butt;stroke-width:3.825}
		.st7 {fill:#ffffff;stroke:none;stroke-linecap:butt;stroke-width:3.825}
		.st8 {fill:#ff8c00;fill-opacity:0.4;stroke:none;stroke-linecap:butt;stroke-width:3.825}
		.st9 {fill:none;fill-rule:evenodd;font-size:12px;overflow:visible;stroke-linecap:square;stroke-miterlimit:3}
	]]>
	</style>

	<g>
		<title>Page-1</title>
		<g id="group2077-1" transform="translate(5.66929,-34.0157)">
			<title>Quickstart Center</title>
			<g id="group2078-2">
				<title>Sheet.2078</title>
				<g id="shape2079-3" transform="translate(1.23965,-23.5704)">
					<title>Sheet.2079</title>
					<path d="M11.08 96.38 C11.08 96.38 4.67 91.55 0 92.97 C1.29 88.32 7.74 83.06 13.55 82.03 C20.38 82.81 21.57 84.01
								 21.57 84.01 L11.08 96.38 Z" class="st1"/>
				</g>
				<g id="shape2080-5" transform="translate(23.9978,-0.812173)">
					<title>Sheet.2080</title>
					<path d="M0 85.3 L12.37 74.81 C12.37 74.81 13.56 76 14.35 82.83 C13.31 88.64 8.05 95.08 3.41 96.38 C4.82 91.7
								 0 85.3 0 85.3 Z" class="st2"/>
				</g>
				<g id="shape2081-7" transform="translate(12.001,-12.0014)">
					<title>Sheet.2081</title>
					<path d="M44.69 51.69 C44.69 51.69 17.33 57.5 0 84.4 L11.97 96.38 C38.88 79.05 44.69 51.69 44.69 51.69 Z"
							class="st3"/>
				</g>
				<g id="shape2082-9" transform="translate(12.001,-12.0014)">
					<title>Sheet.2082</title>
					<path d="M44.69 51.69 C44.69 51.69 17.33 57.5 0 84.4 L11.97 96.38 C38.88 79.05 44.69 51.69 44.69 51.69 Z"
							class="st4"/>
				</g>
				<g id="shape2083-11" transform="translate(17.9885,-12.0014)">
					<title>Sheet.2083</title>
					<path d="M38.7 51.69 L0 90.39 L5.99 96.38 C32.89 79.05 38.7 51.69 38.7 51.69 Z" class="st2"/>
				</g>
				<g id="shape2084-13" transform="translate(13.507,-13.5074)">
					<title>Sheet.2084</title>
					<path d="M0 87.41 C13.49 67.33 32.33 59.17 39.42 56.96 C37.21 64.04 29.04 82.89 8.96 96.38 L0 87.41 Z"
							class="st1"/>
				</g>
				<g id="shape2085-15" transform="translate(40.8442,-40.8449)">
					<title>Sheet.2085</title>
					<path d="M15.85 80.53 C15.85 80.53 9.01 81.98 0 86.8 L9.58 96.38 C14.4 87.37 15.85 80.53 15.85 80.53 Z"
							class="st5"/>
				</g>
				<g id="shape2086-17">
					<title>Sheet.2086</title>
					<path d="M0 96.38 C0 96.38 0.01 82 12 72.4 L23.98 84.38 C14.38 96.37 0 96.38 0 96.38 Z" class="st1"/>
				</g>
				<g id="shape2087-19" transform="translate(4.05662,-4.052)">
					<title>Sheet.2087</title>
					<path d="M0 96.38 C0.34 92.98 2.51 84.81 9.62 78.13 L18.25 86.76 C11.55 93.9 3.39 96.04 0 96.38 Z" class="st3"/>
				</g>
				<g id="shape2088-21" transform="translate(8.29943,-8.29365)">
					<title>Sheet.2088</title>
					<path d="M0 96.38 C0.71 93.05 2.63 88.03 6.59 83.59 L12.79 89.78 C7.79 94.27 2.44 95.86 0 96.38 Z" class="st6"/>
				</g>
				<g id="shape2089-23" transform="translate(29.8095,-29.8103)">
					<title>Sheet.2089</title>
					<ellipse cx="6.16743" cy="90.2105" rx="6.16743" ry="6.16743" class="st7"/>
				</g>
				<g id="shape2090-25" transform="translate(31.3579,-31.3614)">
					<title>Sheet.2090</title>
					<ellipse cx="4.61786" cy="91.7601" rx="4.61786" ry="4.61786" class="st3"/>
				</g>
				<g id="shape2091-27" transform="translate(31.7912,-30.7161)">
					<title>Sheet.2091</title>
					<path d="M8.37 89.16 C9.45 91.47 8.45 94.22 6.14 95.3 C3.83 96.38 1.08 95.38 0 93.07 L8.37 89.16 Z" class="st8"/>
				</g>
				<g id="shape2092-29" transform="translate(11.5393,-11.5146)">
					<title>Sheet.2092</title>
					<path d="M4.28 94.49 C2.89 95.88 0 96.38 0 96.38 C0 96.38 0.61 93.33 1.86 92.07 L13.46 80.48 L15.87 82.9 L4.28
								 94.49 Z" class="st2"/>
				</g>
			</g>
		</g>
	</g>
</svg>
